SVG_Azure_Grouped/Dynamics 365/Mixed Reality Remote Assist.svg

<?xml version="1.0" encoding="UTF-8" standalone="no"?>
<!-- Generated by Microsoft Visio, SVG Export Mixed Reality Remote Assist.svg Page-1 -->

<svg
   xmlns:dc="http://purl.org/dc/elements/1.1/"
   xmlns:cc="http://creativecommons.org/ns#"
   xmlns:rdf="http://www.w3.org/1999/02/22-rdf-syntax-ns#"
   xmlns:svg="http://www.w3.org/2000/svg"
   xmlns="http://www.w3.org/2000/svg"
   xmlns:sodipodi="http://sodipodi.sourceforge.net/DTD/sodipodi-0.dtd"
   xmlns:inkscape="http://www.inkscape.org/namespaces/inkscape"
   width="0.70860922in"
   height="0.78455818in"
   viewBox="0 0 51.019895 56.488342"
   xml:space="preserve"
   class="st7"
   version="1.1"
   id="svg65"
   sodipodi:docname="Mixed Reality Remote Assist.svg"
   style="font-size:12px;overflow:visible;color-interpolation-filters:sRGB;fill:none;fill-rule:evenodd;stroke-linecap:square;stroke-miterlimit:3"
   inkscape:version="0.92.5 (2060ec1f9f, 2020-04-08)"><metadata
   id="metadata69"><rdf:RDF><cc:Work
       rdf:about=""><dc:format>image/svg+xml</dc:format><dc:type
         rdf:resource="http://purl.org/dc/dcmitype/StillImage" /></cc:Work></rdf:RDF></metadata><sodipodi:namedview
   pagecolor="#ffffff"
   bordercolor="#666666"
   borderopacity="1"
   objecttolerance="10"
   gridtolerance="10"
   guidetolerance="10"
   inkscape:pageopacity="0"
   inkscape:pageshadow="2"
   inkscape:window-width="640"
   inkscape:window-height="480"
   id="namedview67"
   showgrid="false"
   inkscape:zoom="1.8150451"
   inkscape:cx="34.015685"
   inkscape:cy="19.526685"
   inkscape:window-x="0"
   inkscape:window-y="0"
   inkscape:window-maximized="0"
   inkscape:current-layer="svg65" />
	<style
   type="text/css"
   id="style2">
	<![CDATA[
		.st1 {fill:url(#grad0-6);stroke:none;stroke-linecap:butt;stroke-width:6.91447}
		.st2 {fill:url(#grad0-10);stroke:none;stroke-linecap:butt;stroke-width:6.91447}
		.st3 {fill:#000000;fill-opacity:0.24;stroke:none;stroke-linecap:butt;stroke-width:6.91447}
		.st4 {fill:#000000;fill-opacity:0.32;stroke:none;stroke-linecap:butt;stroke-width:6.91447}
		.st5 {fill:url(#grad0-18);stroke:none;stroke-linecap:butt;stroke-width:6.91447}
		.st6 {fill:url(#grad0-22);stroke:none;stroke-linecap:butt;stroke-width:6.91447}
		.st7 {fill:none;fill-rule:evenodd;font-size:12px;overflow:visible;stroke-linecap:square;stroke-miterlimit:3}
	]]>
	</style>

	<defs
   id="Patterns_And_Gradients">
		<linearGradient
   id="grad0-6"
   x1="0"
   y1="38.906098"
   x2="53.680626"
   y2="38.906098"
   gradientTransform="scale(0.95043601,1.0521487)"
   gradientUnits="userSpaceOnUse">
			<stop
   offset="0"
   stop-color="#0078d4"
   stop-opacity="1"
   id="stop4" />
			<stop
   offset="1"
   stop-color="#2064ae"
   stop-opacity="1"
   id="stop6" />
		</linearGradient>
		<linearGradient
   id="grad0-10"
   x1="0"
   y1="64.616642"
   x2="45.242927"
   y2="64.616642"
   gradientTransform="scale(1.1276901,0.88676845)"
   gradientUnits="userSpaceOnUse">
			<stop
   offset="0"
   stop-color="#40c4f5"
   stop-opacity="1"
   id="stop9" />
			<stop
   offset="1"
   stop-color="#0095e6"
   stop-opacity="1"
   id="stop11" />
		</linearGradient>
		<linearGradient
   id="grad0-18"
   x1="0"
   y1="66.837408"
   x2="26.596848"
   y2="66.837408"
   gradientTransform="scale(0.95913623,1.0426048)"
   gradientUnits="userSpaceOnUse">
			<stop
   offset="0"
   stop-color="#7cecff"
   stop-opacity="1"
   id="stop14" />
			<stop
   offset="1"
   stop-color="#50e6ff"
   stop-opacity="1"
   id="stop16" />
		</linearGradient>
		<linearGradient
   id="grad0-22"
   x1="0.095398916"
   y1="112.03146"
   x2="18.265552"
   y2="112.03146"
   gradientTransform="scale(1.3365321,0.74820502)"
   gradientUnits="userSpaceOnUse">
			<stop
   offset="0"
   stop-color="#a7f2ff"
   stop-opacity="1"
   id="stop19" />
			<stop
   offset="1"
   stop-color="#7cecff"
   stop-opacity="1"
   id="stop21" />
		</linearGradient>
	</defs>
	<g
   id="g63"
   transform="translate(-6.9145349,-6.9159631)">
		<title
   id="title25">Page-1</title>
		<g
   id="group21090-1"
   transform="translate(6.91447,-34.0157)">
			<title
   id="title27">Mixed Reality Remote Assist.21090</title>
			<g
   id="group21091-2">
				<title
   id="title29">g21</title>
				<g
   id="shape21092-3"
   transform="translate(0,-0.00333688)">
					<title
   id="title31">path5</title>
					<path
   d="m 24.31,41.25 c 0.74,-0.42 1.66,-0.42 2.41,0 L 49.8,54.19 c 0.76,0.42 1.22,1.21 1.22,2.07 v 25.83 c 0,0.86 -0.46,1.65 -1.22,2.07 L 26.72,97.1 c -0.75,0.42 -1.67,0.42 -2.41,0 L 1.22,84.16 C 0.47,83.74 0,82.95 0,82.09 V 56.26 C 0,55.4 0.47,54.61 1.22,54.19 Z"
   class="st1"
   id="path33"
   inkscape:connector-curvature="0"
   style="fill:url(#grad0-6);stroke:none;stroke-width:6.9144702;stroke-linecap:butt" />
				</g>
				<g
   id="shape21093-7">
					<title
   id="title36">path7</title>
					<path
   d="M 0,69.03 V 69 l 0.03,0.02 15.76,-8.49 0.53,17.72 7.98,4.53 c 0.75,0.43 1.68,0.43 2.43,0 L 51.02,69 v -11.7 0.02 25.09 c 0,0.87 -0.47,1.67 -1.24,2.09 L 26.69,97.12 c -0.73,0.4 -1.63,0.4 -2.36,0 L 1.25,84.5 C 0.48,84.08 0,83.28 0,82.41 v -1.32 0 z"
   class="st2"
   id="path38"
   inkscape:connector-curvature="0"
   style="fill:url(#grad0-10);stroke:none;stroke-width:6.9144702;stroke-linecap:butt" />
				</g>
				<g
   id="shape21094-11"
   transform="translate(12.7589,-14.0763)">
					<title
   id="title41">path9</title>
					<path
   d="m 11.55,70 c 0.74,-0.42 1.66,-0.42 2.41,0 l 10.33,5.78 c 0.75,0.42 1.22,1.21 1.22,2.07 v 11.38 c 0,0.85 -0.46,1.64 -1.22,2.07 l -10.33,5.8 c -0.75,0.42 -1.67,0.42 -2.41,0 L 1.22,91.32 C 0.47,90.89 0,90.1 0,89.25 V 77.86 C 0,77 0.47,76.21 1.22,75.79 Z"
   class="st3"
   id="path43"
   inkscape:connector-curvature="0"
   style="fill:#000000;fill-opacity:0.23999999;stroke:none;stroke-width:6.9144702;stroke-linecap:butt" />
				</g>
				<g
   id="shape21095-13"
   transform="translate(12.7589,-13.4804)">
					<title
   id="title46">path13</title>
					<path
   d="m 11.55,70 c 0.74,-0.42 1.66,-0.42 2.41,0 l 10.33,5.78 c 0.75,0.42 1.22,1.21 1.22,2.07 v 11.38 c 0,0.85 -0.46,1.64 -1.22,2.07 l -10.33,5.8 c -0.75,0.42 -1.67,0.42 -2.41,0 L 1.22,91.32 C 0.47,90.89 0,90.1 0,89.25 V 77.86 C 0,77 0.47,76.21 1.22,75.79 Z"
   class="st4"
   id="path48"
   inkscape:connector-curvature="0"
   style="fill:#000000;fill-opacity:0.31999996;stroke:none;stroke-width:6.9144702;stroke-linecap:butt" />
				</g>
				<g
   id="shape21096-15"
   transform="translate(12.7589,-14.3043)">
					<title
   id="title51">path17</title>
					<path
   d="m 11.55,70 c 0.74,-0.42 1.66,-0.42 2.41,0 l 10.33,5.78 c 0.75,0.42 1.22,1.21 1.22,2.07 v 11.38 c 0,0.85 -0.46,1.64 -1.22,2.07 l -10.33,5.8 c -0.75,0.42 -1.67,0.42 -2.41,0 L 1.22,91.32 C 0.47,90.89 0,90.1 0,89.25 V 77.86 C 0,77 0.47,76.21 1.22,75.79 Z"
   class="st5"
   id="path53"
   inkscape:connector-curvature="0"
   style="fill:url(#grad0-18);stroke:none;stroke-width:6.9144702;stroke-linecap:butt" />
				</g>
				<g
   id="shape21097-19"
   transform="translate(13.2415,-28.3642)">
					<title
   id="title56">path19</title>
					<path
   d="m 11.08,84.13 c 0,0 0,0 0,0 l -10.5,5.8 c 0,0 0,0 0,0.01 -0.05,0.02 -0.1,0.05 -0.15,0.08 C 0,90.33 0.03,91 0.51,91.27 l 10.57,5.84 c 0.74,0.41 1.64,0.41 2.38,0 l 10.57,-5.84 c 0.48,-0.27 0.51,-0.94 0.08,-1.25 -0.05,-0.03 -0.1,-0.06 -0.15,-0.09 l -10.5,-5.8 c -0.74,-0.41 -1.64,-0.41 -2.38,0 z"
   class="st6"
   id="path58"
   inkscape:connector-curvature="0"
   style="fill:url(#grad0-22);stroke:none;stroke-width:6.9144702;stroke-linecap:butt" />
				</g>
			</g>
		</g>
	</g>
</svg>

<?xml version="1.0" encoding="UTF-8" standalone="no"?>
<!DOCTYPE svg PUBLIC "-//W3C//DTD SVG 1.1//EN" "http://www.w3.org/Graphics/SVG/1.1/DTD/svg11.dtd">
<!-- Generated by Microsoft Visio, SVG Export Mixed Reality Remote Assist.svg Page-1 -->
<svg xmlns="http://www.w3.org/2000/svg" xmlns:xlink="http://www.w3.org/1999/xlink" xmlns:ev="http://www.w3.org/2001/xml-events"
		width="0.90073in" height="1.35442in" viewBox="0 0 64.8526 97.5185" xml:space="preserve" color-interpolation-filters="sRGB"
		class="st7">
	<style type="text/css">
	<![CDATA[
		.st1 {fill:url(#grad0-6);stroke:none;stroke-linecap:butt;stroke-width:6.91447}
		.st2 {fill:url(#grad0-10);stroke:none;stroke-linecap:butt;stroke-width:6.91447}
		.st3 {fill:#000000;fill-opacity:0.24;stroke:none;stroke-linecap:butt;stroke-width:6.91447}
		.st4 {fill:#000000;fill-opacity:0.32;stroke:none;stroke-linecap:butt;stroke-width:6.91447}
		.st5 {fill:url(#grad0-18);stroke:none;stroke-linecap:butt;stroke-width:6.91447}
		.st6 {fill:url(#grad0-22);stroke:none;stroke-linecap:butt;stroke-width:6.91447}
		.st7 {fill:none;fill-rule:evenodd;font-size:12px;overflow:visible;stroke-linecap:square;stroke-miterlimit:3}
	]]>
	</style>

	<defs id="Patterns_And_Gradients">
		<linearGradient id="grad0-6" x1="0" y1="0" x2="1" y2="0" gradientTransform="rotate(55.269445149416 0.5 0.5)">
			<stop offset="0" stop-color="#0078d4" stop-opacity="1"/>
			<stop offset="1" stop-color="#2064ae" stop-opacity="1"/>
		</linearGradient>
		<linearGradient id="grad0-10" x1="0" y1="0" x2="1" y2="0" gradientTransform="rotate(68.731087133536 0.5 0.5)">
			<stop offset="0" stop-color="#40c4f5" stop-opacity="1"/>
			<stop offset="1" stop-color="#0095e6" stop-opacity="1"/>
		</linearGradient>
		<linearGradient id="grad0-18" x1="0" y1="0" x2="1" y2="0" gradientTransform="rotate(59.176629575989 0.5 0.5)">
			<stop offset="0" stop-color="#7cecff" stop-opacity="1"/>
			<stop offset="1" stop-color="#50e6ff" stop-opacity="1"/>
		</linearGradient>
		<linearGradient id="grad0-22" x1="0" y1="0" x2="1" y2="0" gradientTransform="rotate(82.61700458777 0.5 0.5)">
			<stop offset="0" stop-color="#a7f2ff" stop-opacity="1"/>
			<stop offset="1" stop-color="#7cecff" stop-opacity="1"/>
		</linearGradient>
	</defs>
	<g>
		<title>Page-1</title>
		<g id="group20615-1" transform="translate(6.91447,-34.0157)">
			<title>Mixed Reality Remote Assist.20615</title>
			<g id="group20616-2">
				<title>g21</title>
				<g id="shape20617-3" transform="translate(-2.51799E-13,-0.00333688)">
					<title>path5</title>
					<path d="M24.31 41.25 C25.05 40.83 25.97 40.83 26.72 41.25 L49.8 54.19 C50.56 54.61 51.02 55.4 51.02 56.26 L51.02
								 82.09 C51.02 82.95 50.56 83.74 49.8 84.16 L26.72 97.1 C25.97 97.52 25.05 97.52 24.31 97.1 L1.22
								 84.16 C0.47 83.74 0 82.95 0 82.09 L0 56.26 C0 55.4 0.47 54.61 1.22 54.19 L24.31 41.25 Z"
							class="st1"/>
				</g>
				<g id="shape20618-7">
					<title>path7</title>
					<path d="M0 69.03 L0 69 L0.03 69.02 L15.79 60.53 L16.32 78.25 L24.3 82.78 C25.05 83.21 25.98 83.21 26.73 82.78
								 L51.02 69 L51.02 57.3 L51.02 57.32 L51.02 82.41 C51.02 83.28 50.55 84.08 49.78 84.5 L26.69 97.12
								 C25.96 97.52 25.06 97.52 24.33 97.12 L1.25 84.5 C0.48 84.08 0 83.28 0 82.41 L0 81.09 L0 81.09 L0
								 69.03 L0 69.03 Z" class="st2"/>
				</g>
				<g id="shape20619-11" transform="translate(12.7589,-14.0763)">
					<title>path9</title>
					<path d="M11.55 70 C12.29 69.58 13.21 69.58 13.96 70 L24.29 75.78 C25.04 76.2 25.51 76.99 25.51 77.85 L25.51
								 89.23 C25.51 90.08 25.05 90.87 24.29 91.3 L13.96 97.1 C13.21 97.52 12.29 97.52 11.55 97.1 L1.22
								 91.32 C0.47 90.89 0 90.1 0 89.25 L0 77.86 C0 77 0.47 76.21 1.22 75.79 L11.55 70 Z" class="st3"/>
				</g>
				<g id="shape20620-13" transform="translate(12.7589,-13.4804)">
					<title>path13</title>
					<path d="M11.55 70 C12.29 69.58 13.21 69.58 13.96 70 L24.29 75.78 C25.04 76.2 25.51 76.99 25.51 77.85 L25.51
								 89.23 C25.51 90.08 25.05 90.87 24.29 91.3 L13.96 97.1 C13.21 97.52 12.29 97.52 11.55 97.1 L1.22
								 91.32 C0.47 90.89 0 90.1 0 89.25 L0 77.86 C0 77 0.47 76.21 1.22 75.79 L11.55 70 Z" class="st4"/>
				</g>
				<g id="shape20621-15" transform="translate(12.7589,-14.3043)">
					<title>path17</title>
					<path d="M11.55 70 C12.29 69.58 13.21 69.58 13.96 70 L24.29 75.78 C25.04 76.2 25.51 76.99 25.51 77.85 L25.51
								 89.23 C25.51 90.08 25.05 90.87 24.29 91.3 L13.96 97.1 C13.21 97.52 12.29 97.52 11.55 97.1 L1.22
								 91.32 C0.47 90.89 0 90.1 0 89.25 L0 77.86 C0 77 0.47 76.21 1.22 75.79 L11.55 70 Z" class="st5"/>
				</g>
				<g id="shape20622-19" transform="translate(13.2415,-28.3642)">
					<title>path19</title>
					<path d="M11.08 84.13 C11.08 84.13 11.08 84.13 11.08 84.13 L0.58 89.93 C0.58 89.93 0.58 89.93 0.58 89.94 C0.53
								 89.96 0.48 89.99 0.43 90.02 C0 90.33 0.03 91 0.51 91.27 L11.08 97.11 C11.82 97.52 12.72 97.52 13.46
								 97.11 L24.03 91.27 C24.51 91 24.54 90.33 24.11 90.02 C24.06 89.99 24.01 89.96 23.96 89.93 L13.46
								 84.13 C12.72 83.72 11.82 83.72 11.08 84.13 Z" class="st6"/>
				</g>
			</g>
		</g>
	</g>
</svg>
